assets/img/logo.svg

<svg xmlns="http://www.w3.org/2000/svg" width="68" height="68"><path d="M0 0h68v68H0V0zm23.5 30H29l-5.1-8.6c1.3-.4 2.3-1 3-1.9.7-1 1-2.1 1-3.5 0-1.1-.2-2.1-.6-2.8-.4-.8-1-1.4-1.7-1.9s-1.5-.8-2.4-1c-.9-.2-1.8-.3-2.7-.3H13v20h4.6v-7.9h1.6l4.3 7.9zM55 26.9l-3.3-3c-.4.5-.9 1-1.6 1.4-.7.3-1.5.5-2.5.5-.8 0-1.5-.2-2.2-.4-.7-.3-1.3-.7-1.7-1.2-.5-.5-.9-1.2-1.2-1.9-.3-.7-.4-1.5-.4-2.3 0-.9.1-1.6.4-2.3.3-.8.7-1.4 1.2-1.9s1.1-.9 1.7-1.2c.7-.3 1.5-.4 2.3-.4.8 0 1.5.1 2.2.4.7.3 1.3.7 1.7 1.3l3.2-3.1c-.8-.9-1.9-1.6-3.2-2.1-1.3-.5-2.7-.7-4.1-.7-1.4 0-2.8.2-4.1.7-1.3.5-2.4 1.1-3.4 2-.9.9-1.7 1.9-2.2 3.1-.5 1.3-.8 2.7-.8 4.2s.3 2.8.8 4c.5 1.3 1.3 2.3 2.2 3.2.9.9 2 1.6 3.3 2.1 1.3.5 2.7.7 4.2.7 1.6 0 3.1-.3 4.3-.8 1.3-.6 2.3-1.4 3.2-2.3zM23.5 57H29l-5.1-8.6c1.3-.4 2.3-1 3-1.9.7-1 1-2.1 1-3.5 0-1.1-.2-2.1-.6-2.8-.4-.8-1-1.4-1.7-1.9s-1.5-.8-2.4-1c-.9-.2-1.8-.3-2.7-.3H13v20h4.6v-7.9h1.6l4.3 7.9zM58 46.9c0-1.8-.3-3.4-1-4.7-.7-1.3-1.6-2.3-2.7-3.1-1-.7-2.3-1.3-3.7-1.6-1.4-.3-2.8-.5-4.2-.5H39v20h7.6c1.4 0 2.8-.2 4.1-.6 1.4-.4 2.6-1 3.7-1.8s1.9-1.9 2.6-3.1c.7-1.3 1-2.8 1-4.6z" fill="#FFF"/></svg>

<svg xmlns="http://www.w3.org/2000/svg" width="68" height="68" viewBox="0 0 68 68"><g fill="none"><g fill="#FFF"><path d="M0 0L68 0 68 68 0 68 0 0ZM23.5 30L29 30 23.9 21.4C25.2 21 26.2 20.4 26.9 19.5 27.6 18.5 27.9 17.4 27.9 16 27.9 14.9 27.7 13.9 27.3 13.2 26.9 12.4 26.3 11.8 25.6 11.3 24.9 10.8 24.1 10.5 23.2 10.3 22.3 10.1 21.4 10 20.5 10L13 10 13 30 17.6 30 17.6 22.1 19.2 22.1 23.5 30ZM55 26.9L51.7 23.9C51.3 24.4 50.8 24.9 50.1 25.3 49.4 25.6 48.6 25.8 47.6 25.8 46.8 25.8 46.1 25.6 45.4 25.4 44.7 25.1 44.1 24.7 43.7 24.2 43.2 23.7 42.8 23 42.5 22.3 42.2 21.6 42.1 20.8 42.1 20 42.1 19.1 42.2 18.4 42.5 17.7 42.8 16.9 43.2 16.3 43.7 15.8 44.2 15.3 44.8 14.9 45.4 14.6 46.1 14.3 46.9 14.2 47.7 14.2 48.5 14.2 49.2 14.3 49.9 14.6 50.6 14.9 51.2 15.3 51.6 15.9L54.8 12.8C54 11.9 52.9 11.2 51.6 10.7 50.3 10.2 48.9 10 47.5 10 46.1 10 44.7 10.2 43.4 10.7 42.1 11.2 41 11.8 40 12.7 39.1 13.6 38.3 14.6 37.8 15.8 37.3 17.1 37 18.5 37 20 37 21.5 37.3 22.8 37.8 24 38.3 25.3 39.1 26.3 40 27.2 40.9 28.1 42 28.8 43.3 29.3 44.6 29.8 46 30 47.5 30 49.1 30 50.6 29.7 51.8 29.2 53.1 28.6 54.1 27.8 55 26.9ZM23.5 57L29 57 23.9 48.4C25.2 48 26.2 47.4 26.9 46.5 27.6 45.5 27.9 44.4 27.9 43 27.9 41.9 27.7 40.9 27.3 40.2 26.9 39.4 26.3 38.8 25.6 38.3 24.9 37.8 24.1 37.5 23.2 37.3 22.3 37.1 21.4 37 20.5 37L13 37 13 57 17.6 57 17.6 49.1 19.2 49.1 23.5 57ZM58 46.9C58 45.1 57.7 43.5 57 42.2 56.3 40.9 55.4 39.9 54.3 39.1 53.3 38.4 52 37.8 50.6 37.5 49.2 37.2 47.8 37 46.4 37L39 37 39 57 46.6 57C48 57 49.4 56.8 50.7 56.4 52.1 56 53.3 55.4 54.4 54.6 55.5 53.8 56.3 52.7 57 51.5 57.7 50.2 58 48.7 58 46.9Z"/></g></g></svg>
